file/zara.svg

<svg clip-rule="evenodd" fill-rule="evenodd" stroke-linejoin="round" stroke-miterlimit="1.41421" viewBox="0 0 560 400" xmlns="http://www.w3.org/2000/svg"><path d="m948.708 408.179-148.157-407.91-.102-.269h-2.924l-30.509 83.824-55.543 152.604-.13-.121c-19.25-16.986-46.409-27.604-80.613-31.558l-10.432-1.077 10.349-1.327c56.406-10.136 94.322-45.76 94.322-88.679 0-58.857-55.357-99.938-134.652-99.938h-164.985v2.979h47.941v304.121l-116.432-320.559-.102-.269h-2.924l-30.509 83.824-117.676 323.306-.724.084c-2.011.248-4 .445-5.968.594-2.961.232-5.903.371-8.855.371h-118.9l226.013-391.472 1.68-2.942h-276.423v121.1h2.933c.52-58.986 34.872-118.158 110.77-118.158h91.565l-227.721 394.405h306.784v-116.023h-2.933c-.399 51.412-29.544 100.244-92.921 111.271l-2.014.343 48.266-132.665h135.209l48.72 134.141h-48.061v2.933h188.635v-2.933h-48.266v-202.344h55.692c56.675 0 89.18 25.32 89.18 69.446v35.893c0 3.955.269 9.737.566 14.573v.176l-29.934 82.238h-39.105v2.933h80.947v-2.933h-38.686l27.261-74.886c.055.724.083 1.16.083 1.16l.752 6.748.724 4.464c4.548 27.614 15.111 47.913 31.382 60.332l2.339 1.699c12.363 8.595 27.725 12.948 45.685 12.948 23.79 0 39.652-5.931 52.749-19.891l-1.717-1.615c-12.067 11.138-22.193 15.649-34.881 15.649-21.618 0-32.932-26.221-32.932-52.08v-50.289c.115-12.479-1.839-24.89-5.783-36.729l-.538-1.559v-.056h98.898l48.72 134.142h-48.061v2.933h163.24v-2.933zm-690.449-137.074 66.606-182.992 66.458 182.992zm275.188-68.213v-186.185h42.511c56.787 0 86.767 33.758 86.767 97.59 0 67.887-17.209 88.595-73.614 88.595zm202.605 68.213-.288-.724c-4.395-10.704-10.793-20.471-18.852-28.774l-2.784-2.785-.297-.278 54.707-150.431 66.458 182.992z" fill-rule="nonzero" transform="matrix(.36 0 0 .36 100 124.287)"/></svg>

<?xml version="1.0" encoding="UTF-8" standalone="no"?>
<!DOCTYPE svg PUBLIC "-//W3C//DTD SVG 1.1//EN" "http://www.w3.org/Graphics/SVG/1.1/DTD/svg11.dtd">
<svg width="100%" height="100%" viewBox="0 0 560 400" version="1.1" xmlns="http://www.w3.org/2000/svg" xmlns:xlink="http://www.w3.org/1999/xlink" xml:space="preserve" xmlns:serif="http://www.serif.com/" style="fill-rule:evenodd;clip-rule:evenodd;stroke-linejoin:round;stroke-miterlimit:1.41421;">
    <g id="path815" transform="matrix(0.36,0,0,0.36,100,124.287)">
        <path d="M948.708,408.179L800.551,0.269L800.449,0L797.525,0L767.016,83.824L711.473,236.428L711.343,236.307C692.093,219.321 664.934,208.703 630.73,204.749L620.298,203.672L630.647,202.345C687.053,192.209 724.969,156.585 724.969,113.666C724.969,54.809 669.612,13.728 590.317,13.728L425.332,13.728L425.332,16.707L473.273,16.707L473.273,320.828L356.841,0.269L356.739,0L353.815,0L323.306,83.824L205.63,407.13L204.906,407.214C202.895,407.462 200.906,407.659 198.938,407.808C195.977,408.04 193.035,408.179 190.083,408.179L71.183,408.179L297.196,16.707L298.876,13.765L22.453,13.765L22.453,134.865L25.386,134.865C25.906,75.879 60.258,16.707 136.156,16.707L227.721,16.707L0,411.112L306.784,411.112L306.784,295.089L303.851,295.089C303.452,346.501 274.307,395.333 210.93,406.36L208.916,406.703L257.182,274.038L392.391,274.038L441.111,408.179L393.05,408.179L393.05,411.112L581.685,411.112L581.685,408.179L533.419,408.179L533.419,205.835L589.111,205.835C645.786,205.835 678.291,231.155 678.291,275.281L678.291,311.174C678.291,315.129 678.56,320.911 678.857,325.747L678.857,325.923L648.923,408.161L609.818,408.161L609.818,411.094L690.765,411.094L690.765,408.161L652.079,408.161L679.34,333.275C679.395,333.999 679.423,334.435 679.423,334.435L680.175,341.183L680.899,345.647C685.447,373.261 696.01,393.56 712.281,405.979L714.62,407.678C726.983,416.273 742.345,420.626 760.305,420.626C784.095,420.626 799.957,414.695 813.054,400.735L811.337,399.12C799.27,410.258 789.144,414.769 776.456,414.769C754.838,414.769 743.524,388.548 743.524,362.689L743.524,312.4C743.639,299.921 741.685,287.51 737.741,275.671L737.203,274.112L737.203,274.056L836.101,274.056L884.821,408.198L836.76,408.198L836.76,411.131L1000,411.131L1000,408.198L948.708,408.179ZM258.259,271.105L324.865,88.113L391.323,271.105L258.259,271.105ZM533.447,202.892L533.447,16.707L575.958,16.707C632.745,16.707 662.725,50.465 662.725,114.297C662.725,182.184 645.516,202.892 589.111,202.892L533.447,202.892ZM736.052,271.105L735.764,270.381C731.369,259.677 724.971,249.91 716.912,241.607L714.128,238.822L713.831,238.544L768.538,88.113L834.996,271.105L736.052,271.105Z" style="fill-rule:nonzero;"/>
    </g>
</svg>
